client/public/img/misc/bleed_out.svg

<?xml version="1.0" encoding="UTF-8" standalone="no"?>
<svg
   width="12"
   height="17"
   viewBox="0 0 12 17"
   fill="none"
   version="1.1"
   id="svg3"
   xmlns="http://www.w3.org/2000/svg"
   xmlns:svg="http://www.w3.org/2000/svg">
  <defs
     id="defs3" />
  <path
     d="M3.52344 6.97502C3.52344 4.47668 5.05305 2.52337 5.82658 0.583374C5.88501 0.436832 6.10909 0.436832 6.16752 0.583372C6.94106 2.5232 8.47066 4.47548 8.47066 6.97502C8.47066 8.71054 7.51681 9.48375 5.99705 9.48375C4.47728 9.48375 3.52344 8.71264 3.52344 6.97502Z"
     fill="white"
     id="path1" />
  <path
     d="M8.05469 11.4009C8.05469 9.83094 8.97603 8.58927 9.49906 7.3689C9.56121 7.2239 9.79155 7.2239 9.8537 7.3689C10.3767 8.58911 11.2981 9.83019 11.2981 11.4009C11.2981 12.5387 10.6727 13.0456 9.67637 13.0456C8.68002 13.0456 8.05469 12.5401 8.05469 11.4009Z"
     fill="white"
     id="path2" />
  <path
     d="M0.974609 14.0568C0.974609 12.0412 2.18735 10.4577 2.83198 8.89198C2.89204 8.74609 3.11883 8.74609 3.1789 8.89197C3.82353 10.4575 5.03626 12.0402 5.03626 14.0568C5.03626 15.4817 4.25315 16.1165 3.00543 16.1165C1.75771 16.1165 0.974609 15.4834 0.974609 14.0568Z"
     fill="white"
     id="path3" />
</svg>

<svg xmlns="http://www.w3.org/2000/svg" width="12" height="17" fill="none"><path fill="#fff" d="M3.523 6.975c0-2.498 1.53-4.452 2.304-6.392.058-.146.282-.146.34 0 .774 1.94 2.304 3.892 2.304 6.392 0 1.736-.954 2.509-2.474 2.509s-2.474-.771-2.474-2.509M8.055 11.4c0-1.57.921-2.81 1.444-4.031.062-.145.293-.145.355 0 .523 1.22 1.444 2.461 1.444 4.032 0 1.138-.625 1.645-1.622 1.645-.996 0-1.621-.506-1.621-1.645m-7.08 2.656c0-2.016 1.212-3.6 1.857-5.165.06-.146.287-.146.347 0 .645 1.566 1.857 3.148 1.857 5.165 0 1.425-.783 2.06-2.03 2.06-1.248 0-2.031-.634-2.031-2.06"/></svg>
